latex_in_markdown/.watch-latex-md-images/96c65477199e7ce5ce08884ec8ad8f3b.svg

<ns0:svg xmlns:ns0="http://www.w3.org/2000/svg" xmlns:ns1="http://www.w3.org/1999/xlink" height="38.842pt" version="1.1" viewBox="153.766 75.7161 313.482 38.842" width="313.482pt" watch_lated_md:baseline="16.098399999999998" xmlns:watch_lated_md="https://github.com/Quansight/pearu-sandbox/latex_in_markdown/">
<ns0:defs>
<ns0:path d="m11.345 -3.95955c0.292662 0 0.60254 0 0.60254 -0.344309s-0.309878 -0.344309 -0.60254 -0.344309h-9.31355c-0.292662 0 -0.60254 0 -0.60254 0.344309s0.309878 0.344309 0.60254 0.344309h9.31355z" id="g0-0" />
<ns0:path d="m3.16764 -0.826341c0 -0.499248 -0.413171 -0.843557 -0.826341 -0.843557c-0.499248 0 -0.843557 0.413171 -0.843557 0.826341c0 0.499248 0.413171 0.843557 0.826341 0.843557c0.499248 0 0.843557 -0.413171 0.843557 -0.826341z" id="g1-58" />
<ns0:path d="m3.54638 -5.04412c0.0344309 -0.103293 0.464817 -0.964065 1.10179 -1.51496c0.447601 -0.413171 1.03293 -0.688618 1.70433 -0.688618c0.688618 0 0.929634 0.516463 0.929634 1.20508c0 0.103293 0 0.447601 -0.206585 1.25673l-0.430386 1.77319c-0.137724 0.516463 -0.464817 1.79041 -0.499248 1.97978c-0.0688618 0.258232 -0.172154 0.705833 -0.172154 0.774695c0 0.241016 0.18937 0.430386 0.447601 0.430386c0.516463 0 0.60254 -0.395955 0.757479 -1.01571l1.03293 -4.11449c0.0344309 -0.137724 0.929634 -2.28965 2.82333 -2.28965c0.688618 0 0.929634 0.516463 0.929634 1.20508c0 0.964065 -0.671402 2.84055 -1.05014 3.87347c-0.154939 0.413171 -0.241016 0.636971 -0.241016 0.946849c0 0.774695 0.533679 1.39445 1.36002 1.39445c1.60104 0 2.20358 -2.53067 2.20358 -2.63396c0 -0.0860772 -0.0688618 -0.154939 -0.172154 -0.154939c-0.154939 0 -0.172154 0.0516463 -0.258232 0.344309c-0.395955 1.37724 -1.03293 2.10028 -1.72154 2.10028c-0.172154 0 -0.447601 -0.0172154 -0.447601 -0.56811c0 -0.447601 0.206585 -0.998496 0.275447 -1.18787c0.309878 -0.826341 1.08457 -2.85776 1.08457 -3.85626c0 -1.03293 -0.60254 -1.80762 -1.91091 -1.80762c-1.15343 0 -2.08307 0.654187 -2.77169 1.6699c-0.0516463 -0.929634 -0.619756 -1.6699 -1.91091 -1.6699c-1.53217 0 -2.3413 1.08457 -2.65118 1.51496c-0.0516463 -0.98128 -0.757479 -1.51496 -1.51496 -1.51496c-0.499248 0 -0.895203 0.241016 -1.2223 0.895203c-0.309878 0.619756 -0.550894 1.6699 -0.550894 1.73876s0.0688618 0.154939 0.18937 0.154939c0.137724 0 0.154939 -0.0172154 0.258232 -0.413171c0.258232 -1.01571 0.585325 -2.03142 1.27394 -2.03142c0.395955 0 0.533679 0.275447 0.533679 0.79191c0 0.37874 -0.172154 1.05014 -0.292662 1.58382l-0.482032 1.85927c-0.0688618 0.327093 -0.258232 1.10179 -0.344309 1.41167c-0.120508 0.447601 -0.309878 1.25673 -0.309878 1.3428c0 0.241016 0.18937 0.430386 0.447601 0.430386c0.206585 0 0.447601 -0.103293 0.585325 -0.361524c0.0344309 -0.0860772 0.18937 -0.688618 0.275447 -1.03293l0.37874 -1.54939l0.56811 -2.27244z" id="g1-109" />
<ns0:path d="m5.26792 4.20057c0 -0.0172154 0 -0.0516463 -0.0516463 -0.103293c-0.79191 -0.809126 -2.90941 -3.0127 -2.90941 -8.38392s2.08307 -7.55758 2.92662 -8.41835c0 -0.0172154 0.0344309 -0.0516463 0.0344309 -0.103293s-0.0516463 -0.0860772 -0.120508 -0.0860772c-0.18937 0 -1.65268 1.27394 -2.49624 3.16764c-0.860772 1.91091 -1.10179 3.77018 -1.10179 5.42286c0 1.23951 0.120508 3.3398 1.15343 5.56059c0.826341 1.79041 2.23801 3.04713 2.44459 3.04713c0.0860772 0 0.120508 -0.0344309 0.120508 -0.103293z" id="g2-40" />
<ns0:path d="m4.52766 -4.28664c0 -1.23951 -0.120508 -3.3398 -1.15343 -5.56059c-0.826341 -1.79041 -2.23801 -3.04713 -2.44459 -3.04713c-0.0516463 0 -0.120508 0.0172154 -0.120508 0.103293c0 0.0344309 0.0172154 0.0516463 0.0344309 0.0860772c0.826341 0.860772 2.92662 3.04713 2.92662 8.40114c0 5.37122 -2.08307 7.55758 -2.92662 8.41835c-0.0172154 0.0344309 -0.0344309 0.0516463 -0.0344309 0.0860772c0 0.0860772 0.0688618 0.103293 0.120508 0.103293c0.18937 0 1.65268 -1.27394 2.49624 -3.16764c0.860772 -1.91091 1.10179 -3.77018 1.10179 -5.42286z" id="g2-41" />
<ns0:path d="m4.57931 -11.0007c0 -0.361524 -0.0172154 -0.37874 -0.258232 -0.37874c-0.671402 0.809126 -1.68711 1.06736 -2.65118 1.10179c-0.0516463 0 -0.137724 0 -0.154939 0.0344309s-0.0172154 0.0688618 -0.0172154 0.430386c0.533679 0 1.42888 -0.103293 2.1175 -0.516463v9.07254c0 0.60254 -0.0344309 0.809126 -1.51496 0.809126h-0.516463v0.447601c0.826341 -0.0172154 1.68711 -0.0344309 2.51345 -0.0344309s1.68711 0.0172154 2.51345 0.0344309v-0.447601h-0.516463c-1.48053 0 -1.51496 -0.18937 -1.51496 -0.809126v-9.74394z" id="g2-49" />
<ns0:path d="m3.80461 -5.85325c1.53217 0 2.20358 1.32559 2.20358 2.85776c0 2.06585 -1.10179 2.85776 -2.10028 2.85776c-0.912418 0 -2.39295 -0.447601 -2.85776 -1.77319c0.0860772 0.0344309 0.172154 0.0344309 0.258232 0.0344309c0.413171 0 0.723049 -0.275447 0.723049 -0.723049c0 -0.499248 -0.37874 -0.723049 -0.723049 -0.723049c-0.292662 0 -0.740264 0.137724 -0.740264 0.774695c0 1.58382 1.54939 2.82333 3.37423 2.82333c1.91091 0 3.37423 -1.49774 3.37423 -3.25372c0 -1.6699 -1.37724 -2.87498 -3.0127 -3.06435c1.30837 -0.275447 2.5651 -1.4461 2.5651 -3.0127c0 -1.3428 -1.36002 -2.32408 -2.90941 -2.32408c-1.56661 0 -2.94384 0.964065 -2.94384 2.3413c0 0.60254 0.447601 0.705833 0.671402 0.705833c0.361524 0 0.671402 -0.223801 0.671402 -0.671402s-0.309878 -0.671402 -0.671402 -0.671402c-0.0688618 0 -0.154939 0 -0.223801 0.0344309c0.499248 -1.13622 1.85927 -1.3428 2.46181 -1.3428s1.73876 0.292662 1.73876 1.94534c0 0.482032 -0.0688618 1.3428 -0.654187 2.10028c-0.516463 0.671402 -1.10179 0.705833 -1.6699 0.757479c-0.0860772 0 -0.482032 0.0344309 -0.550894 0.0344309c-0.120508 0.0172154 -0.18937 0.0344309 -0.18937 0.154939s0.0172154 0.137724 0.361524 0.137724h0.843557z" id="g2-51" />
<ns0:path d="m5.78439 -11.1384c0 -0.361524 -0.0172154 -0.37874 -0.327093 -0.37874l-5.11299 8.1429v0.447601h4.44158v1.68711c0 0.619756 -0.0344309 0.79191 -1.23951 0.79191h-0.327093v0.447601c0.550894 -0.0344309 1.48053 -0.0344309 2.06585 -0.0344309s1.51496 0 2.06585 0.0344309v-0.447601h-0.327093c-1.20508 0 -1.23951 -0.172154 -1.23951 -0.79191v-1.68711h1.75597v-0.447601h-1.75597v-7.76416zm-0.946849 1.13622v6.62794h-4.14892l4.14892 -6.62794z" id="g2-52" />
<ns0:path d="m1.96256 -10.071c0.172154 0.0688618 0.877987 0.292662 1.60104 0.292662c1.60104 0 2.47902 -0.860772 2.97827 -1.36002c0 -0.137724 0 -0.223801 -0.103293 -0.223801c-0.0172154 0 -0.0516463 0 -0.18937 0.0688618c-0.60254 0.258232 -1.30837 0.464817 -2.16915 0.464817c-0.516463 0 -1.29116 -0.0688618 -2.13471 -0.447601c-0.18937 -0.0860772 -0.223801 -0.0860772 -0.241016 -0.0860772c-0.0860772 0 -0.103293 0.0172154 -0.103293 0.361524v4.99248c0 0.309878 0 0.395955 0.172154 0.395955c0.0860772 0 0.120508 -0.0344309 0.206585 -0.154939c0.550894 -0.774695 1.30837 -1.10179 2.16915 -1.10179c0.60254 0 1.8937 0.37874 1.8937 3.32258c0 0.550894 0 1.54939 -0.516463 2.3413c-0.430386 0.705833 -1.10179 1.06736 -1.84205 1.06736c-1.13622 0 -2.28965 -0.79191 -2.59953 -2.1175c0.0688618 0.0172154 0.206585 0.0516463 0.275447 0.0516463c0.223801 0 0.654187 -0.120508 0.654187 -0.654187c0 -0.464817 -0.327093 -0.654187 -0.654187 -0.654187c-0.395955 0 -0.654187 0.241016 -0.654187 0.723049c0 1.49774 1.18787 3.06435 3.0127 3.06435c1.77319 0 3.4603 -1.53217 3.4603 -3.75297c0 -2.06585 -1.3428 -3.66689 -3.0127 -3.66689c-0.877987 0 -1.61825 0.327093 -2.20358 0.946849v-3.87347z" id="g2-53" />
<ns0:path d="m1.82484 -5.93933c0 -4.11449 1.92813 -5.04412 3.04713 -5.04412c0.361524 0 1.23951 0.0688618 1.58382 0.740264c-0.275447 0 -0.79191 0 -0.79191 0.60254c0 0.464817 0.37874 0.619756 0.619756 0.619756c0.154939 0 0.619756 -0.0688618 0.619756 -0.654187c0 -1.08457 -0.860772 -1.70433 -2.04864 -1.70433c-2.04864 0 -4.20057 2.13471 -4.20057 5.93933c0 4.6826 1.94534 5.71553 3.32258 5.71553c1.6699 0 3.25372 -1.49774 3.25372 -3.80461c0 -2.15193 -1.39445 -3.71854 -3.15043 -3.71854c-1.05014 0 -1.82484 0.688618 -2.25522 1.8937v-0.585325zm2.15193 5.8016c-2.1175 0 -2.1175 -3.16764 -2.1175 -3.80461c0 -1.23951 0.585325 -3.02992 2.18636 -3.02992c0.292662 0 1.13622 0 1.70433 1.18787c0.309878 0.671402 0.309878 1.37724 0.309878 2.23801c0 0.929634 0 1.61825 -0.361524 2.30687c-0.37874 0.705833 -0.929634 1.10179 -1.72154 1.10179z" id="g2-54" />
<ns0:path d="m11.0695 -5.52616c0.258232 0 0.516463 0 0.516463 -0.292662c0 -0.309878 -0.292662 -0.309878 -0.585325 -0.309878h-9.62343c-0.292662 0 -0.585325 0 -0.585325 0.309878c0 0.292662 0.258232 0.292662 0.516463 0.292662h9.76115zm-0.0688618 3.06435c0.292662 0 0.585325 0 0.585325 -0.309878c0 -0.292662 -0.258232 -0.292662 -0.516463 -0.292662h-9.76115c-0.258232 0 -0.516463 0 -0.516463 0.292662c0 0.309878 0.292662 0.309878 0.585325 0.309878h9.62343z" id="g2-61" />
</ns0:defs>
<ns0:g id="page1">
<ns0:use x="153.766" ns1:href="#g1-109" y="98.4597" />
<ns0:use x="173.292" ns1:href="#g2-61" y="98.4597" />
<ns0:use x="200.506" ns1:href="#g2-49" y="86.8133" />
<ns0:use x="212.227" ns1:href="#g0-0" y="86.8133" />
<ns0:use x="229.442" ns1:href="#g2-49" y="86.8133" />
<ns0:use x="237.337" ns1:href="#g2-54" y="86.8133" />
<ns0:rect height="0.688595" width="62.4145" x="191.662" y="93.8115" />
<ns0:use x="191.662" ns1:href="#g2-51" y="110.269" />
<ns0:use x="203.383" ns1:href="#g0-0" y="110.269" />
<ns0:use x="220.598" ns1:href="#g2-40" y="110.269" />
<ns0:use x="226.695" ns1:href="#g0-0" y="110.269" />
<ns0:use x="240.085" ns1:href="#g2-49" y="110.269" />
<ns0:use x="247.98" ns1:href="#g2-41" y="110.269" />
<ns0:use x="260.054" ns1:href="#g2-61" y="98.4597" />
<ns0:use x="277.228" ns1:href="#g0-0" y="98.4597" />
<ns0:use x="291.814" ns1:href="#g2-49" y="86.8133" />
<ns0:use x="299.709" ns1:href="#g2-53" y="86.8133" />
<ns0:rect height="0.688595" width="15.7906" x="291.814" y="93.8115" />
<ns0:use x="295.761" ns1:href="#g2-52" y="110.269" />
<ns0:use x="308.8" ns1:href="#g1-58" y="98.4597" />
<ns0:use x="447.16" ns1:href="#g2-40" y="98.4597" />
<ns0:use x="453.256" ns1:href="#g2-49" y="98.4597" />
<ns0:use x="461.151" ns1:href="#g2-41" y="98.4597" />
</ns0:g>
</ns0:svg>

<ns0:svg xmlns:ns0="http://www.w3.org/2000/svg" xmlns:ns1="http://www.w3.org/1999/xlink" height="41.2497pt" version="1.1" viewBox="23.686 73.3084 443.562 41.2497" width="443.562pt" watch_lated_md:baseline="39.8383" xmlns:watch_lated_md="https://github.com/Quansight/pearu-sandbox/latex_in_markdown/">
<ns0:defs>
<ns0:path d="M11.345 -3.95955C11.6376 -3.95955 11.9475 -3.95955 11.9475 -4.30386S11.6376 -4.64817 11.345 -4.64817H2.03142C1.73876 -4.64817 1.42888 -4.64817 1.42888 -4.30386S1.73876 -3.95955 2.03142 -3.95955H11.345Z" id="g0-0" />
<ns0:path d="M3.16764 -0.826341C3.16764 -1.32559 2.75447 -1.6699 2.3413 -1.6699C1.84205 -1.6699 1.49774 -1.25673 1.49774 -0.843557C1.49774 -0.344309 1.91091 0 2.32408 0C2.82333 0 3.16764 -0.413171 3.16764 -0.826341Z" id="g1-58" />
<ns0:path d="M3.54638 -5.04412C3.58081 -5.14742 4.0112 -6.00819 4.64817 -6.55908C5.09577 -6.97225 5.6811 -7.2477 6.3525 -7.2477C7.04112 -7.2477 7.28213 -6.73124 7.28213 -6.04262C7.28213 -5.93933 7.28213 -5.59502 7.07555 -4.78589L6.64516 -3.0127C6.50744 -2.49624 6.18034 -1.2223 6.14591 -1.03293C6.07705 -0.774695 5.97376 -0.327093 5.97376 -0.258232C5.97376 -0.0172154 6.16313 0.172154 6.42136 0.172154C6.93782 0.172154 7.0239 -0.223801 7.17884 -0.843557L8.21177 -4.95805C8.2462 -5.09577 9.1414 -7.2477 11.0351 -7.2477C11.7237 -7.2477 11.9647 -6.73124 11.9647 -6.04262C11.9647 -5.07856 11.2933 -3.20207 10.9146 -2.16915C10.7597 -1.75597 10.6736 -1.53217 10.6736 -1.2223C10.6736 -0.447601 11.2073 0.172154 12.0336 0.172154C13.6346 0.172154 14.2372 -2.35852 14.2372 -2.46181C14.2372 -2.54789 14.1683 -2.61675 14.065 -2.61675C13.9101 -2.61675 13.8929 -2.5651 13.8068 -2.27244C13.4108 -0.895203 12.7739 -0.172154 12.0852 -0.172154C11.9131 -0.172154 11.6376 -0.18937 11.6376 -0.740264C11.6376 -1.18787 11.8442 -1.73876 11.9131 -1.92813C12.223 -2.75447 12.9977 -4.78589 12.9977 -5.78439C12.9977 -6.81731 12.3951 -7.59201 11.0867 -7.59201C9.93331 -7.59201 9.00368 -6.93782 8.31506 -5.92211C8.26341 -6.85175 7.6953 -7.59201 6.40414 -7.59201C4.87197 -7.59201 4.06284 -6.50744 3.75297 -6.07705C3.70132 -7.05833 2.99549 -7.59201 2.23801 -7.59201C1.73876 -7.59201 1.3428 -7.35099 1.01571 -6.69681C0.705833 -6.07705 0.464817 -5.02691 0.464817 -4.95805S0.533679 -4.80311 0.654187 -4.80311C0.79191 -4.80311 0.809126 -4.82032 0.912418 -5.21628C1.17065 -6.23199 1.49774 -7.2477 2.18636 -7.2477C2.58232 -7.2477 2.72004 -6.97225 2.72004 -6.45579C2.72004 -6.07705 2.54789 -5.40565 2.42738 -4.87197L1.94534 -3.0127C1.87648 -2.68561 1.68711 -1.91091 1.60104 -1.60104C1.48053 -1.15343 1.29116 -0.344309 1.29116 -0.258232C1.29116 -0.0172154 1.48053 0.172154 1.73876 0.172154C1.94534 0.172154 2.18636 0.0688618 2.32408 -0.18937C2.35852 -0.275447 2.51345 -0.877987 2.59953 -1.2223L2.97827 -2.77169L3.54638 -5.04412Z" id="g1-109" />
<ns0:path d="M5.26792 4.20057C5.26792 4.18335 5.26792 4.14892 5.21628 4.09727C4.42437 3.28815 2.30687 1.08457 2.30687 -4.28664S4.38994 -11.8442 5.23349 -12.705C5.23349 -12.7222 5.26792 -12.7566 5.26792 -12.8083S5.21628 -12.8944 5.14742 -12.8944C4.95805 -12.8944 3.49473 -11.6204 2.65118 -9.72672C1.79041 -7.81581 1.54939 -5.95654 1.54939 -4.30386C1.54939 -3.06435 1.6699 -0.964065 2.70282 1.25673C3.52917 3.04713 4.94083 4.30386 5.14742 4.30386C5.23349 4.30386 5.26792 4.26943 5.26792 4.20057Z" id="g2-40" />
<ns0:path d="M4.52766 -4.28664C4.52766 -5.52616 4.40715 -7.62644 3.37423 -9.84723C2.54789 -11.6376 1.13622 -12.8944 0.929634 -12.8944C0.877987 -12.8944 0.809126 -12.8771 0.809126 -12.7911C0.809126 -12.7566 0.826341 -12.7394 0.843557 -12.705C1.6699 -11.8442 3.77018 -9.65786 3.77018 -4.30386C3.77018 1.06736 1.68711 3.25372 0.843557 4.11449C0.826341 4.14892 0.809126 4.16614 0.809126 4.20057C0.809126 4.28664 0.877987 4.30386 0.929634 4.30386C1.119 4.30386 2.58232 3.02992 3.42587 1.13622C4.28664 -0.774695 4.52766 -2.63396 4.52766 -4.28664Z" id="g2-41" />
<ns0:path d="M2.85776 -0.705833C2.85776 -1.13622 2.51345 -1.41167 2.15193 -1.41167C1.80762 -1.41167 1.4461 -1.13622 1.4461 -0.705833S1.79041 0 2.15193 0C2.49624 0 2.85776 -0.275447 2.85776 -0.705833Z" id="g2-46" />
<ns0:path d="M4.57931 -11.0007C4.57931 -11.3622 4.56209 -11.3794 4.32108 -11.3794C3.64967 -10.5703 2.63396 -10.312 1.6699 -10.2776C1.61825 -10.2776 1.53217 -10.2776 1.51496 -10.2432S1.49774 -10.1743 1.49774 -9.8128C2.03142 -9.8128 2.92662 -9.91609 3.61524 -10.3293V-1.25673C3.61524 -0.654187 3.58081 -0.447601 2.10028 -0.447601H1.58382V0C2.41016 -0.0172154 3.27093 -0.0344309 4.09727 -0.0344309S5.78439 -0.0172154 6.61073 0V-0.447601H6.09427C4.61374 -0.447601 4.57931 -0.636971 4.57931 -1.25673V-11.0007Z" id="g2-49" />
<ns0:path d="M3.80461 -5.85325C5.33679 -5.85325 6.00819 -4.52766 6.00819 -2.99549C6.00819 -0.929634 4.9064 -0.137724 3.90791 -0.137724C2.99549 -0.137724 1.51496 -0.585325 1.05014 -1.91091C1.13622 -1.87648 1.2223 -1.87648 1.30837 -1.87648C1.72154 -1.87648 2.03142 -2.15193 2.03142 -2.59953C2.03142 -3.09878 1.65268 -3.32258 1.30837 -3.32258C1.01571 -3.32258 0.56811 -3.18486 0.56811 -2.54789C0.56811 -0.964065 2.1175 0.275447 3.94234 0.275447C5.85325 0.275447 7.31656 -1.2223 7.31656 -2.97827C7.31656 -4.64817 5.93933 -5.85325 4.30386 -6.04262C5.61223 -6.31807 6.86896 -7.48872 6.86896 -9.05532C6.86896 -10.3981 5.50894 -11.3794 3.95955 -11.3794C2.39295 -11.3794 1.01571 -10.4153 1.01571 -9.03811C1.01571 -8.43557 1.46331 -8.33227 1.68711 -8.33227C2.04864 -8.33227 2.35852 -8.55607 2.35852 -9.00368S2.04864 -9.67508 1.68711 -9.67508C1.61825 -9.67508 1.53217 -9.67508 1.46331 -9.64065C1.96256 -10.7769 3.32258 -10.9835 3.92512 -10.9835S5.66388 -10.6908 5.66388 -9.03811C5.66388 -8.55607 5.59502 -7.6953 5.00969 -6.93782C4.49323 -6.26642 3.90791 -6.23199 3.3398 -6.18034C3.25372 -6.18034 2.85776 -6.14591 2.7889 -6.14591C2.66839 -6.1287 2.59953 -6.11148 2.59953 -5.99097S2.61675 -5.85325 2.96106 -5.85325H3.80461Z" id="g2-51" />
<ns0:path d="M5.78439 -11.1384C5.78439 -11.4999 5.76717 -11.5171 5.45729 -11.5171L0.344309 -3.37423V-2.92662H4.78589V-1.23951C4.78589 -0.619756 4.75146 -0.447601 3.54638 -0.447601H3.21929V0C3.77018 -0.0344309 4.69982 -0.0344309 5.28514 -0.0344309S6.8001 -0.0344309 7.35099 0V-0.447601H7.0239C5.81882 -0.447601 5.78439 -0.619756 5.78439 -1.23951V-2.92662H7.54036V-3.37423H5.78439V-11.1384ZM4.83754 -10.0022V-3.37423H0.688618L4.83754 -10.0022Z" id="g2-52" />
<ns0:path d="M1.96256 -10.071C2.13471 -10.0022 2.84055 -9.77837 3.5636 -9.77837C5.16463 -9.77837 6.04262 -10.6391 6.54187 -11.1384C6.54187 -11.2761 6.54187 -11.3622 6.43857 -11.3622C6.42136 -11.3622 6.38693 -11.3622 6.24921 -11.2933C5.64666 -11.0351 4.94083 -10.8285 4.08006 -10.8285C3.5636 -10.8285 2.7889 -10.8974 1.94534 -11.2761C1.75597 -11.3622 1.72154 -11.3622 1.70433 -11.3622C1.61825 -11.3622 1.60104 -11.345 1.60104 -11.0007V-6.00819C1.60104 -5.69831 1.60104 -5.61223 1.77319 -5.61223C1.85927 -5.61223 1.8937 -5.64666 1.97978 -5.76717C2.53067 -6.54187 3.28815 -6.86896 4.14892 -6.86896C4.75146 -6.86896 6.04262 -6.49022 6.04262 -3.54638C6.04262 -2.99549 6.04262 -1.99699 5.52616 -1.20508C5.09577 -0.499248 4.42437 -0.137724 3.6841 -0.137724C2.54789 -0.137724 1.39445 -0.929634 1.08457 -2.25522C1.15343 -2.23801 1.29116 -2.20358 1.36002 -2.20358C1.58382 -2.20358 2.01421 -2.32408 2.01421 -2.85776C2.01421 -3.32258 1.68711 -3.51195 1.36002 -3.51195C0.964065 -3.51195 0.705833 -3.27093 0.705833 -2.7889C0.705833 -1.29116 1.8937 0.275447 3.71854 0.275447C5.49173 0.275447 7.17884 -1.25673 7.17884 -3.47752C7.17884 -5.54337 5.83603 -7.14441 4.16614 -7.14441C3.28815 -7.14441 2.54789 -6.81731 1.96256 -6.19756V-10.071Z" id="g2-53" />
<ns0:path d="M1.82484 -5.93933C1.82484 -10.0538 3.75297 -10.9835 4.87197 -10.9835C5.23349 -10.9835 6.11148 -10.9146 6.45579 -10.2432C6.18034 -10.2432 5.66388 -10.2432 5.66388 -9.64065C5.66388 -9.17583 6.04262 -9.02089 6.28364 -9.02089C6.43857 -9.02089 6.90339 -9.08975 6.90339 -9.67508C6.90339 -10.7597 6.04262 -11.3794 4.85475 -11.3794C2.80612 -11.3794 0.654187 -9.24469 0.654187 -5.44008C0.654187 -0.757479 2.59953 0.275447 3.97677 0.275447C5.64666 0.275447 7.23049 -1.2223 7.23049 -3.52917C7.23049 -5.6811 5.83603 -7.2477 4.08006 -7.2477C3.02992 -7.2477 2.25522 -6.55908 1.82484 -5.354V-5.93933ZM3.97677 -0.137724C1.85927 -0.137724 1.85927 -3.30536 1.85927 -3.94234C1.85927 -5.18185 2.44459 -6.97225 4.04563 -6.97225C4.33829 -6.97225 5.18185 -6.97225 5.74996 -5.78439C6.05984 -5.11299 6.05984 -4.40715 6.05984 -3.54638C6.05984 -2.61675 6.05984 -1.92813 5.69831 -1.23951C5.31957 -0.533679 4.76868 -0.137724 3.97677 -0.137724Z" id="g2-54" />
<ns0:path d="M11.0695 -5.52616C11.3278 -5.52616 11.586 -5.52616 11.586 -5.81882C11.586 -6.1287 11.2933 -6.1287 11.0007 -6.1287H1.37724C1.08457 -6.1287 0.79191 -6.1287 0.79191 -5.81882C0.79191 -5.52616 1.05014 -5.52616 1.30837 -5.52616H11.0695ZM11.0007 -2.46181C11.2933 -2.46181 11.586 -2.46181 11.586 -2.77169C11.586 -3.06435 11.3278 -3.06435 11.0695 -3.06435H1.30837C1.05014 -3.06435 0.79191 -3.06435 0.79191 -2.77169C0.79191 -2.46181 1.08457 -2.46181 1.37724 -2.46181H11.0007Z" id="g2-61" />
</ns0:defs>
<ns0:g id="page1">
<ns0:use x="153.766" ns1:href="#g1-109" y="98.4597" />
<ns0:use x="173.292" ns1:href="#g2-61" y="98.4597" />
<ns0:use x="200.506" ns1:href="#g2-49" y="86.8133" />
<ns0:use x="212.227" ns1:href="#g0-0" y="86.8133" />
<ns0:use x="229.442" ns1:href="#g2-49" y="86.8133" />
<ns0:use x="237.337" ns1:href="#g2-54" y="86.8133" />
<ns0:rect height="0.688595" width="62.4145" x="191.662" y="93.8115" />
<ns0:use x="191.662" ns1:href="#g2-51" y="110.269" />
<ns0:use x="203.383" ns1:href="#g0-0" y="110.269" />
<ns0:use x="220.598" ns1:href="#g2-40" y="110.269" />
<ns0:use x="226.695" ns1:href="#g0-0" y="110.269" />
<ns0:use x="240.085" ns1:href="#g2-49" y="110.269" />
<ns0:use x="247.98" ns1:href="#g2-41" y="110.269" />
<ns0:use x="260.054" ns1:href="#g2-61" y="98.4597" />
<ns0:use x="277.228" ns1:href="#g0-0" y="98.4597" />
<ns0:use x="291.814" ns1:href="#g2-49" y="86.8133" />
<ns0:use x="299.709" ns1:href="#g2-53" y="86.8133" />
<ns0:rect height="0.688595" width="15.7906" x="291.814" y="93.8115" />
<ns0:use x="295.761" ns1:href="#g2-52" y="110.269" />
<ns0:use x="308.8" ns1:href="#g1-58" y="98.4597" />
<ns0:use x="447.16" ns1:href="#g2-40" y="98.4597" />
<ns0:use x="453.256" ns1:href="#g2-49" y="98.4597" />
<ns0:use x="461.151" ns1:href="#g2-41" y="98.4597" />
</ns0:g>
</ns0:svg>
